T: Chain Cotillion
M: 2/4
L: 1/8
K: Gmaj
|: |G D|G G|C Am|D||C D|G G|G D|G:||: |G G|G G|C D|G||G Bm|C Bm|C Am|D D||C D|G G|G D|G:|
